app/img/icons/ic--pong.svg

<svg xmlns="http://www.w3.org/2000/svg" preserveAspectRatio="xMidYMid" width="30.031" height="30.031" viewBox="0 0 30.031 30.031"><defs><style>.cls-1{fill:#fff;fill-rule:evenodd}</style></defs><path d="M16.358-.004c-6.927 0-12.773 5.232-13.56 12.073a13.543 13.543 0 0 0 1.501 7.971l-3.133 3.133a4.017 4.017 0 0 0-1.18 2.837 4.026 4.026 0 0 0 4.025 4.019 3.994 3.994 0 0 0 2.78-1.099l.066-.066v-.016l3.131-3.117a13.706 13.706 0 0 0 7.961 1.493c6.837-.796 12.076-6.627 12.076-13.565 0-7.536-6.132-13.663-13.667-13.663zm-5.96 23.324a1.164 1.164 0 0 0-1.427.165v-.009l-3.738 3.748-.057.049c-.32.296-.73.46-1.165.46a1.721 1.721 0 0 1-1.713-1.723c0-.426.164-.885.492-1.214l.008.009 3.739-3.748c.409-.41.467-1.05.122-1.501a11.349 11.349 0 0 1-1.639-5.831L16.301 25.01a11.257 11.257 0 0 1-5.903-1.69zm7.715 1.559L5.143 11.896c.861-5.486 5.616-9.587 11.215-9.587 6.264 0 11.355 5.084 11.355 11.35 0 5.594-4.107 10.366-9.6 11.22zm1.139-12.368c-2.361 0-4.287 1.944-4.287 4.29 0 2.345 1.926 4.28 4.287 4.28 2.345 0 4.28-1.927 4.28-4.28 0-2.346-1.935-4.29-4.28-4.29zm0 6.258a1.963 1.963 0 0 1-1.967-1.968c0-1.075.877-1.969 1.967-1.969 1.075 0 1.968.894 1.968 1.969 0 1.09-.893 1.968-1.968 1.968z" class="cls-1"/></svg>

<svg xmlns="http://www.w3.org/2000/svg" xmlns:xlink="http://www.w3.org/1999/xlink" preserveAspectRatio="xMidYMid" width="30.031" height="30.031" viewBox="0 0 30.031 30.031">
  <defs>
    <style>
      .cls-1 {
        fill: #fff;
        fill-rule: evenodd;
      }
    </style>
  </defs>
  <path d="M16.358,-0.004 C9.431,-0.004 3.585,5.228 2.798,12.069 C2.478,14.783 2.979,17.572 4.299,20.040 L1.166,23.173 L1.166,23.173 L1.166,23.173 L1.166,23.173 C0.380,23.960 -0.014,24.993 -0.014,26.010 C-0.014,28.233 1.798,30.029 4.011,30.029 C5.020,30.029 6.020,29.668 6.791,28.930 L6.857,28.864 L6.857,28.848 L6.857,28.848 L9.988,25.731 C12.448,27.035 15.252,27.536 17.949,27.224 C24.786,26.428 30.025,20.597 30.025,13.659 C30.025,6.123 23.893,-0.004 16.358,-0.004 L16.358,-0.004 ZM10.398,23.320 L10.398,23.320 C9.939,23.034 9.348,23.115 8.971,23.485 L8.971,23.476 L5.233,27.224 L5.233,27.224 L5.233,27.224 L5.233,27.224 L5.176,27.273 C4.856,27.569 4.446,27.733 4.011,27.733 C3.069,27.733 2.298,26.961 2.298,26.010 C2.298,25.584 2.462,25.125 2.790,24.796 L2.798,24.805 L6.537,21.057 C6.946,20.647 7.004,20.007 6.659,19.556 C5.570,17.768 5.036,15.751 5.020,13.725 L16.301,25.010 C14.235,25.001 12.193,24.435 10.398,23.320 L10.398,23.320 ZM18.113,24.879 L18.113,24.879 L5.143,11.896 C6.004,6.410 10.759,2.309 16.358,2.309 C22.622,2.309 27.713,7.393 27.713,13.659 C27.713,19.253 23.606,24.025 18.113,24.879 L18.113,24.879 ZM19.252,12.511 L19.252,12.511 C16.891,12.511 14.965,14.455 14.965,16.801 C14.965,19.146 16.891,21.081 19.252,21.081 C21.597,21.081 23.532,19.154 23.532,16.801 C23.532,14.455 21.597,12.511 19.252,12.511 L19.252,12.511 ZM19.252,18.769 L19.252,18.769 C18.162,18.769 17.285,17.891 17.285,16.801 C17.285,15.726 18.162,14.832 19.252,14.832 C20.327,14.832 21.220,15.726 21.220,16.801 C21.220,17.891 20.327,18.769 19.252,18.769 L19.252,18.769 Z" class="cls-1"/>
</svg>
